public/img/psychology/b6-2.svg

<?xml version="1.0" encoding="UTF-8"?> <svg xmlns="http://www.w3.org/2000/svg" width="144" height="144" viewBox="0 0 144 144" fill="none"> <rect x="0.5" y="0.5" width="143" height="143" rx="71.5" stroke="black"></rect> <path d="M21.639 61.12H36.429V63.411H30.368V82H27.7V63.411H21.639V61.12ZM42.6527 76.055C42.6527 77.2537 42.991 78.2107 43.6677 78.926C44.3443 79.622 45.2627 79.97 46.4227 79.97C47.5827 79.97 48.501 79.622 49.1777 78.926C49.8543 78.2107 50.1927 77.2537 50.1927 76.055V67.065C50.1927 65.8663 49.8543 64.919 49.1777 64.223C48.501 63.5077 47.5827 63.15 46.4227 63.15C45.2627 63.15 44.3443 63.5077 43.6677 64.223C42.991 64.919 42.6527 65.8663 42.6527 67.065V76.055ZM40.0427 67.065C40.0427 66.1177 40.1877 65.2573 40.4777 64.484C40.787 63.7107 41.2123 63.0533 41.7537 62.512C42.3143 61.9707 42.9813 61.555 43.7547 61.265C44.5473 60.975 45.4367 60.83 46.4227 60.83C47.4087 60.83 48.2883 60.975 49.0617 61.265C49.8543 61.555 50.5213 61.9707 51.0627 62.512C51.6233 63.0533 52.0487 63.7107 52.3387 64.484C52.648 65.2573 52.8027 66.1177 52.8027 67.065V76.055C52.8027 77.0023 52.648 77.8627 52.3387 78.636C52.0487 79.39 51.6233 80.0377 51.0627 80.579C50.5213 81.1203 49.8543 81.5457 49.0617 81.855C48.269 82.145 47.3893 82.29 46.4227 82.29C45.4367 82.29 44.5473 82.145 43.7547 81.855C42.9813 81.565 42.3143 81.1493 41.7537 80.608C41.2123 80.0667 40.787 79.4093 40.4777 78.636C40.1877 77.8627 40.0427 77.0023 40.0427 76.055V67.065ZM57.7213 82V61.12H69.9013V82H67.2913V63.498H60.3313V82H57.7213ZM75.4 71.27H87V73.59H75.4V71.27ZM98.2407 69.53C99.2847 69.53 100.222 69.6847 101.054 69.994C101.904 70.284 102.62 70.7093 103.2 71.27C103.799 71.8113 104.263 72.4783 104.592 73.271C104.92 74.0637 105.085 74.9433 105.085 75.91C105.085 76.896 104.93 77.7853 104.621 78.578C104.311 79.3513 103.867 80.0183 103.287 80.579C102.707 81.1203 102.001 81.5457 101.17 81.855C100.358 82.145 99.4393 82.29 98.4147 82.29C97.506 82.29 96.665 82.1547 95.8917 81.884C95.1377 81.6133 94.4707 81.2363 93.8907 80.753C93.33 80.2503 92.866 79.651 92.4987 78.955C92.1507 78.259 91.938 77.4857 91.8607 76.635H94.4707C94.6253 77.6403 95.0603 78.4523 95.7757 79.071C96.491 79.6703 97.3707 79.97 98.4147 79.97C99.6327 79.97 100.609 79.6027 101.344 78.868C102.078 78.114 102.446 77.128 102.446 75.91C102.446 74.692 102.069 73.7157 101.315 72.981C100.561 72.227 99.5553 71.85 98.2987 71.85H95.8627V69.095L100.01 64.89C100.203 64.6967 100.406 64.513 100.619 64.339C100.831 64.165 101.034 64.0103 101.228 63.875C101.44 63.701 101.663 63.5367 101.895 63.382V63.324C101.682 63.3433 101.46 63.3627 101.228 63.382C101.015 63.4013 100.783 63.4207 100.532 63.44C100.3 63.44 100.048 63.44 99.7777 63.44H92.4987V61.12H104.099V64.02L99.1977 68.689C99.0817 68.805 98.9657 68.9113 98.8497 69.008C98.7337 69.1047 98.6273 69.1917 98.5307 69.269C98.434 69.3657 98.3373 69.4527 98.2407 69.53ZM112.207 76.055C112.207 77.2537 112.546 78.2107 113.222 78.926C113.899 79.622 114.817 79.97 115.977 79.97C117.137 79.97 118.056 79.622 118.732 78.926C119.409 78.2107 119.747 77.2537 119.747 76.055V67.065C119.747 65.8663 119.409 64.919 118.732 64.223C118.056 63.5077 117.137 63.15 115.977 63.15C114.817 63.15 113.899 63.5077 113.222 64.223C112.546 64.919 112.207 65.8663 112.207 67.065V76.055ZM109.597 67.065C109.597 66.1177 109.742 65.2573 110.032 64.484C110.342 63.7107 110.767 63.0533 111.308 62.512C111.869 61.9707 112.536 61.555 113.309 61.265C114.102 60.975 114.991 60.83 115.977 60.83C116.963 60.83 117.843 60.975 118.616 61.265C119.409 61.555 120.076 61.9707 120.617 62.512C121.178 63.0533 121.603 63.7107 121.893 64.484C122.203 65.2573 122.357 66.1177 122.357 67.065V76.055C122.357 77.0023 122.203 77.8627 121.893 78.636C121.603 79.39 121.178 80.0377 120.617 80.579C120.076 81.1203 119.409 81.5457 118.616 81.855C117.824 82.145 116.944 82.29 115.977 82.29C114.991 82.29 114.102 82.145 113.309 81.855C112.536 81.565 111.869 81.1493 111.308 80.608C110.767 80.0667 110.342 79.4093 110.032 78.636C109.742 77.8627 109.597 77.0023 109.597 76.055V67.065ZM114.527 70.545C114.527 70.0617 114.653 69.675 114.904 69.385C115.175 69.095 115.533 68.95 115.977 68.95C116.422 68.95 116.77 69.095 117.021 69.385C117.292 69.675 117.427 70.0617 117.427 70.545V72.865C117.427 73.3483 117.292 73.735 117.021 74.025C116.77 74.315 116.422 74.46 115.977 74.46C115.533 74.46 115.175 74.315 114.904 74.025C114.653 73.735 114.527 73.3483 114.527 72.865V70.545Z" fill="black"></path> </svg>

<svg xmlns="http://www.w3.org/2000/svg" width="144" height="144" fill="none"><rect x=".5" y=".5" width="143" height="143" rx="71.5" stroke="#000"/><path d="M21.639 61.12h14.79v2.291h-6.061V82H27.7V63.411h-6.061V61.12zm21.014 14.935c0 1.199.338 2.156 1.015 2.871.676.696 1.595 1.044 2.755 1.044s2.078-.348 2.755-1.044c.676-.715 1.015-1.672 1.015-2.871v-8.99c0-1.199-.339-2.146-1.015-2.842-.677-.715-1.595-1.073-2.755-1.073s-2.079.358-2.755 1.073c-.677.696-1.015 1.643-1.015 2.842v8.99zm-2.61-8.99c0-.947.145-1.808.435-2.581a5.785 5.785 0 011.276-1.972 5.747 5.747 0 012-1.247c.793-.29 1.683-.435 2.669-.435s1.865.145 2.639.435c.792.29 1.46.706 2 1.247a5.269 5.269 0 011.277 1.972c.309.773.464 1.634.464 2.581v8.99c0 .947-.155 1.808-.464 2.581a5.316 5.316 0 01-1.276 1.943c-.542.541-1.209.967-2.001 1.276-.793.29-1.673.435-2.64.435-.985 0-1.875-.145-2.667-.435a5.747 5.747 0 01-2.001-1.247 5.788 5.788 0 01-1.276-1.972c-.29-.773-.435-1.634-.435-2.581v-8.99zM57.72 82V61.12H69.9V82h-2.61V63.498h-6.96V82h-2.61zM75.4 71.27H87v2.32H75.4v-2.32zm22.84-1.74c1.045 0 1.982.155 2.814.464.85.29 1.566.715 2.146 1.276a5.49 5.49 0 011.392 2.001c.328.793.493 1.672.493 2.639 0 .986-.155 1.875-.464 2.668a5.691 5.691 0 01-1.334 2.001c-.58.541-1.286.967-2.117 1.276-.812.29-1.73.435-2.755.435-.909 0-1.75-.135-2.523-.406a6.555 6.555 0 01-2.001-1.131 6.404 6.404 0 01-1.392-1.798 6.442 6.442 0 01-.638-2.32h2.61c.154 1.005.59 1.817 1.305 2.436.715.6 1.595.899 2.639.899 1.218 0 2.194-.367 2.929-1.102.734-.754 1.102-1.74 1.102-2.958 0-1.218-.377-2.194-1.131-2.929-.754-.754-1.76-1.131-3.016-1.131h-2.436v-2.755l4.147-4.205a9.705 9.705 0 011.218-1.015c.212-.174.435-.338.667-.493v-.058c-.213.02-.435.039-.667.058-.213.02-.445.039-.696.058h-8.034v-2.32H104.1v2.9l-4.901 4.669a5.222 5.222 0 01-.348.319c-.116.097-.223.184-.32.261a3.536 3.536 0 01-.29.261zm13.967 6.525c0 1.199.339 2.156 1.015 2.871.677.696 1.595 1.044 2.755 1.044s2.079-.348 2.755-1.044c.677-.715 1.015-1.672 1.015-2.871v-8.99c0-1.199-.338-2.146-1.015-2.842-.676-.715-1.595-1.073-2.755-1.073s-2.078.358-2.755 1.073c-.676.696-1.015 1.643-1.015 2.842v8.99zm-2.61-8.99c0-.947.145-1.808.435-2.581.31-.773.735-1.43 1.276-1.972a5.754 5.754 0 012.001-1.247c.793-.29 1.682-.435 2.668-.435.986 0 1.866.145 2.639.435.793.29 1.46.706 2.001 1.247a5.266 5.266 0 011.276 1.972c.31.773.464 1.634.464 2.581v8.99c0 .947-.154 1.808-.464 2.581a5.31 5.31 0 01-1.276 1.943c-.541.541-1.208.967-2.001 1.276-.792.29-1.672.435-2.639.435-.986 0-1.875-.145-2.668-.435a5.754 5.754 0 01-2.001-1.247 5.805 5.805 0 01-1.276-1.972c-.29-.773-.435-1.634-.435-2.581v-8.99zm4.93 3.48c0-.483.126-.87.377-1.16.271-.29.629-.435 1.073-.435.445 0 .793.145 1.044.435.271.29.406.677.406 1.16v2.32c0 .483-.135.87-.406 1.16-.251.29-.599.435-1.044.435-.444 0-.802-.145-1.073-.435-.251-.29-.377-.677-.377-1.16v-2.32z" fill="#000"/></svg>
